!!!OTL-incipit: ACH MUTTER, LIEBE MUTTER!
!!!ARE: Europa, Mitteleuropa, Deutschland
!!!SCT: Z0023
!!!TXL: @@DE
!!!YEM: Copyright 1995, estate of Helmut Schaffrath.
**kern	**text
*ICvox	*
*M2/4	*
*k[f#]	*
*G:	*
{8d	Ach
=1	=1
8.b/	Mut-
16b/	-ter,
8.b/	lie-
16a	-be
=2	=2
4a	Mut-
8g}	-ter!
{8d	mein
=3	=3
8cc	Kopf
8cc	thut
16ccL	mir
16bJ	.
16ddL	ſo
16bJ	.
=4	=4
4a	weh;
8r}	.
{8d	ich
=5	=5
8.dd	woll-
16ee	-te
8.dd	gern
16cc	ſpa-
=6	=6
4b/	-ʒie-
16ddL	-ren,
16ccJ}	.
{16bL	wohl
16aJ	.
=7	=7
8g	an
8g	der
16bL	grü-
16aJ	.
16gL	-nen
16aJ	.
=8	=8
4b/}	See,
{4a	wohl
=9	=9
8b/	an
8b/	der
16ddL	grü-
16ccJ	.
16bL	-nen
16aJ	.
=10	=10
4g	See.
8r}	.
==:|;;	==:|;;
!!!AGN: Sagen - Lied, Romanze, Koenigskinder, Tod
!!!ONB: ESAC (Essen Associative Code) Database: ZUCCAL
!!!AMT: simple duple
!!!AIN: vox
!!!EED: Helmut Schaffrath
!!!EEV: 1.0
!!!GTL: I. Ernste Romanzen und Sagen.
!!!URL-scan: https://www.digitale-sammlungen.de/de/view/bsb11160571?page=51
!!!ENC: Anna Maria Matuszewska
!!!EEV: 2025/01/23
*-	*-
